X: 27133
T: Miss McGuinness
R: reel
M: 4/4
K: Gmajor
dG~G2 BGBd|efga bage|dG~G2 BGBd|1 egdB BAAB:|2 egdB ~A3z||
~a3b g2ag|egdg egdg|~a3b g2ag|egdB BAA2|
~a3b g2ag|egdg egdg|b3g a3f|edef gedB||

